X:1
T:Title
%%score { ( 1 4 ) | ( 2 3 ) }
L:1/8
M:6/8
K:F
V:1 treble nm="Grand Piano"
V:4 treble 
V:2 bass 
V:3 bass 
V:1
 z3 z2[Q:1/4=87] C | A2 A AGF | GA[GB] A2 A | cAF FGA | [EG]3- [EG]2 C | A2 A AGF | %6
 [FB]2 [Fc] [Fd]2 [Fd] | [Fc]/[FA]/- [FA]2 [FA]2 [B,EG] |[M:5/8] [A,F]-[A,F]- [A,F]3 | %9
[M:1/8] [CAc] |[M:3/4] [Ac]4 z2 | z B- B3 z | [CB]4 z2 | z F z2 z2 | [Fd]4 z2 | z [Ac]- [Ac]3 z | %16
 [Fc]<[FA]- [FA] [FA]2 [EG] |[M:5/8] F-F- F3 |] %18
V:2
 z3 z2 [F,A,] | [F,CF]2 [F,CF] [F,CF][G,B,E][A,D] | [G,B,E][F,CF][E,C] [F,CF]2 [F,CF] | .A,3 .C3 | %4
 [C,C]3- [C,C]2 [F,A,] | z3 .[CF]3 | [D,B,]2 [C,A,] [B,,B,]2 [B,,B,] | %7
 [C,A,]/[C,C]/- [C,C]2 [C,C]2 C, |[M:5/8] F,-F,- F,3 |[M:1/8] F, | %10
[M:3/4] F,F, F,F,[K:treble] [G,B,G][A,CF] | z G- G3[K:bass] z | C,C, C,C, D,E, | %13
 F,C, A,, F,,2 [F,A,F] | [B,,B,]B,, B,,C, [D,B,][E,B,] | [F,A,]C A, F,2 [B,,B,] | %16
 [C,A,]<[C,C]- [C,C] [C,C]2 [C,B,] |[M:5/8] [F,A,]-[F,A,]- [F,A,]3 |] %18
V:3
 x6 | x6 | x6 | [F,F]-[F,CF][F,A,C] [F,A,][E,B,][F,A,F] | x6 | [F,CF]2 [F,CF] F,-[F,B,E][F,A,D] | %6
 x6 | x6 |[M:5/8] x5 |[M:1/8] x |[M:3/4] x4[K:treble] x2 | [B,CE][G,C] E,[K:bass] C,2 C, | x6 | %13
 x6 | x6 | x6 | x6 |[M:5/8] x5 |] %18
V:4
 x6 | x6 | x6 | x6 | x6 | x6 | x6 | x6 |[M:5/8] x5 |[M:1/8] x |[M:3/4] CA, z A, BA | %11
 .G2 C C2 [CEB] | EE EE [CFA][B,CG] | [A,CF][CA]- [C-FA-] [CFA]2 c | z B, B,B, [Fd][Ff] | %15
 .[Ff]2 C C2 [Fd] | x6 |[M:5/8] x5 |] %18

